icons/4_Outdated/Standard Notes v1.svg

<svg xmlns="http://www.w3.org/2000/svg" width="1024" height="1024" fill="none">
   <g clip-path="url(#a)">
      <path fill="#728DBE" d="M512 1024c282.77 0 512-229.23 512-512S794.77 0 512 0 0 229.23 0 512s229.23 512 512 512Z"/>
      <path fill="#fff" d="M699.43 324.57v374.86H324.57V324.57h374.86Zm34.07-34.07h-443v443h443v-443ZM522.34 418.15h-20.68a69.409 69.409 0 0 0-69.41 69.41v118.3h33V488.28a40.644 40.644 0 0 1 11.903-28.737 40.644 40.644 0 0 1 28.737-11.903H518a40.644 40.644 0 0 1 28.737 11.903 40.644 40.644 0 0 1 11.903 28.737v117.57h33v-118.3a69.408 69.408 0 0 0-69.3-69.4Z"/>
   </g>
   <defs>
      <clipPath id="a">
         <path fill="#fff" d="M0 0h1024v1024H0z"/>
      </clipPath>
   </defs>
</svg>

<svg width="1024" height="1024" viewBox="0 0 1024 1024" fill="none" xmlns="http://www.w3.org/2000/svg">
<g clip-path="url(#clip0_3_677)">
<path d="M512 1024C794.77 1024 1024 794.77 1024 512C1024 229.23 794.77 0 512 0C229.23 0 0 229.23 0 512C0 794.77 229.23 1024 512 1024Z" fill="#728DBE"/>
<path d="M699.43 324.57V699.43H324.57V324.57H699.43ZM733.5 290.5H290.5V733.5H733.5V290.5ZM522.34 418.15H501.66C483.251 418.15 465.597 425.463 452.58 438.48C439.563 451.497 432.25 469.151 432.25 487.56V605.86H465.25V488.28C465.25 477.502 469.532 467.165 477.153 459.543C484.775 451.922 495.112 447.64 505.89 447.64H518C528.778 447.64 539.115 451.922 546.737 459.543C554.358 467.165 558.64 477.502 558.64 488.28V605.85H591.64V487.55C591.637 469.162 584.338 451.527 571.346 438.515C558.353 425.503 540.728 418.179 522.34 418.15Z" fill="white"/>
</g>
<defs>
<clipPath id="clip0_3_677">
<rect width="1024" height="1024" fill="white"/>
</clipPath>
</defs>
</svg>
